static/logos/pitch-glyph-color.svg

<svg width="100" height="35" viewBox="0 0 100 35" fill="none" xmlns="http://www.w3.org/2000/svg">
<g clip-path="url(#clip0_1_1669)">
<path d="M67.9878 26.1697C67.1891 27.3164 66.0445 28.1773 64.7211 28.6262C63.3978 29.0751 61.9655 29.0888 60.634 28.6647C59.3025 28.2408 58.1417 27.4017 57.3217 26.2702C56.5016 25.1386 56.0654 23.7744 56.0769 22.3771C56.0882 20.9797 56.5469 19.6227 57.3854 18.5048C58.2239 17.3871 59.3982 16.5671 60.7366 16.165C62.0748 15.7629 63.5067 15.7998 64.8225 16.2705C66.1382 16.7411 67.2687 17.6206 68.0484 18.7803L72.8832 15.9258C71.4754 13.7048 69.3851 12.0004 66.926 11.0687C64.467 10.137 61.7722 10.0283 59.246 10.7587C56.7199 11.4892 54.499 13.0195 52.9167 15.1197C51.3345 17.22 50.4763 19.777 50.4711 22.4065C50.466 25.0361 51.314 27.5964 52.8879 29.7029C54.4619 31.8095 56.6767 33.3485 59.2001 34.0889C61.7232 34.8294 64.4185 34.7312 66.8811 33.8092C69.3439 32.8873 71.4408 31.1912 72.8575 28.9758L67.9893 26.1697H67.9878ZM81.309 0H75.6999V33.6455H81.306V22.4303C81.306 20.6952 81.9952 19.0311 83.2222 17.8041C84.4492 16.5771 86.1132 15.8879 87.8484 15.8879C89.5835 15.8879 91.2476 16.5771 92.4746 17.8041C93.7016 19.0311 94.3908 20.6952 94.3908 22.4303V33.6455H99.9984V21.3394C99.9975 19.1748 99.3616 17.0582 98.1695 15.2515C96.9772 13.4449 95.2811 12.0278 93.2914 11.1758C91.3016 10.3238 89.1055 10.0744 86.9754 10.4585C84.8451 10.8425 82.8745 11.8431 81.3075 13.3364V0H81.309ZM42.0575 0H36.4499V26.1682C36.4496 27.7832 36.9145 29.3641 37.7885 30.722C38.6628 32.08 39.9095 33.1574 41.3796 33.8259C42.8499 34.4942 44.4814 34.7252 46.0793 34.4912C47.6772 34.2571 49.174 33.568 50.3908 32.5061L47.6817 27.9091C47.4195 28.2406 47.0855 28.5083 46.7051 28.6923C46.3246 28.8762 45.9073 28.9715 45.4848 28.9712H44.8605C44.1172 28.9708 43.4045 28.6753 42.8788 28.1498C42.3532 27.6242 42.0578 26.9115 42.0575 26.1682V16.8227H47.6635V11.2152H42.0575V0ZM29.912 0C29.0858 0 28.2934 0.328203 27.7093 0.912406C27.1251 1.49661 26.7969 2.28895 26.7969 3.11515C26.7969 3.94135 27.1251 4.7337 27.7093 5.31789C28.2934 5.90211 29.0858 6.2303 29.912 6.2303C30.7382 6.2303 31.5305 5.90211 32.1148 5.31789C32.699 4.7337 33.0272 3.94135 33.0272 3.11515C33.0272 2.28895 32.699 1.49661 32.1148 0.912406C31.5305 0.328203 30.7382 0 29.912 0ZM32.7151 33.6455V11.2152H27.109V33.6455H32.7151Z" fill="black"/>
<path fill-rule="evenodd" clip-rule="evenodd" d="M0 33.6455H5.60606V27.103H10.747C12.5266 27.103 14.2888 26.7526 15.9329 26.0715C17.5771 25.3905 19.0709 24.3923 20.3294 23.1339C21.5877 21.8755 22.5859 20.3817 23.267 18.7374C23.948 17.0933 24.2985 15.3311 24.2985 13.5515C24.2985 11.7719 23.948 10.0097 23.267 8.36558C22.5859 6.72142 21.5877 5.22752 20.3294 3.96915C19.0709 2.71077 17.5771 1.71258 15.9329 1.03155C14.2888 0.35052 12.5266 -3.75024e-08 10.747 0H0V33.6455ZM5.60606 5.60606H10.747C12.8538 5.60606 14.8744 6.44302 16.3642 7.93279C17.8539 9.42256 18.6909 11.4431 18.6909 13.55C18.6909 15.6568 17.8539 17.6774 16.3642 19.1673C14.8744 20.657 12.8538 21.4939 10.747 21.4939H5.60758V5.60606H5.60606Z" fill="black"/>
</g>
<defs>
<clipPath id="clip0_1_1669">
<rect width="100" height="34.8485" fill="white"/>
</clipPath>
</defs>
</svg>

<svg xmlns="http://www.w3.org/2000/svg" width="182.857" height="64" fill="none" viewBox="0 0 100 35"><g fill="#000" clip-path="url(#a)"><path d="M67.988 26.17a6.542 6.542 0 1 1 .06-7.39l4.835-2.854a12.15 12.15 0 1 0-.025 13.05l-4.869-2.806h-.001ZM81.309 0h-5.61v33.645h5.607V22.43a6.542 6.542 0 1 1 13.085 0v11.215h5.607V21.34a11.062 11.062 0 0 0-18.69-8.003V0h.001ZM42.057 0H36.45v26.168a8.411 8.411 0 0 0 13.94 6.338l-2.708-4.597a2.8 2.8 0 0 1-2.197 1.062h-.624a2.805 2.805 0 0 1-2.803-2.803v-9.345h5.605v-5.608h-5.605V0ZM29.912 0a3.115 3.115 0 1 0 0 6.23 3.115 3.115 0 0 0 0-6.23Zm2.803 33.645v-22.43H27.11v22.43h5.606Z"/><path fill-rule="evenodd" d="M0 33.645h5.606v-6.542h5.141a13.55 13.55 0 0 0 12.52-18.737A13.554 13.554 0 0 0 10.747 0H0v33.645ZM5.606 5.606h5.141a7.944 7.944 0 0 1 0 15.888h-5.14V5.606Z" clip-rule="evenodd"/></g><defs><clipPath id="a"><path fill="#fff" d="M0 0h100v34.849H0z"/></clipPath></defs></svg>
